X:1
T:Etiuda G-dur op. 186
T:Etiuda G-dur op. 186
T:Iwan Wołkow
C:Iwan Wołkow
L:1/8
Q:1/4=144
M:2/4
K:G
V:1 bass nm="Violoncello" snm="V-c."
V:1
"^Allegro"!mf! (!4!G,/F,/G,/D,/)!<(! (G,/F,/G,/D,/)!<)! | (G,/A,/!1!B,/!2!C/) (!4!D!1!B,) | %2
 (D/^C/D/A,/) (D/C/D/A,/) |!>(! (D/C/B,/A,/) G, z!>)! | (G,/F,/G,/D,/) (G,/F,/G,/D,/) | %5
!<(! (G,/A,/B,/C/) (DB,)!<)! | (A,/B,/^C/B,/) (A,/B,/C/B,/) | (A,/B,/^C/A,/) D z | %8
!p! (D,/E,/=F,/E,/) (D,/E,/F,/E,/) | (D,/E,/=F,/G,/) (!0!A,!0!D,) | %10
!<(! A,,/A,,/_B,,/B,,/ =B,,/B,,/_B,,/B,,/!<)! |!>(! A,,/A,,/_B,,/B,,/ A,, z!>)! | %12
!p! (D,/E,/)=F,/E,/ (D,/E,/)F,/E,/ | (D,/E,/)=F,/G,/!<(! (!0!A,!1!B,)!<)! | %14
 !2!C/D/B,/C/ !0!A,/!1!B,/!4!G,/G,/ | F,/F,/E,/E,/ !>!D,!>!D |!p! (G,/F,/G,/D,/) (G,/F,/G,/D,/) | %17
!<(! (G,/A,/B,/C/) (DB,)!<)! | (D/^C/D/A,/) (D/C/D/A,/) |!>(! (D/C/B,/A,/) G, z!>)! | %20
 (G,/F,/G,/D,/) (G,/F,/G,/D,/) | (G,/A,/B,/C/) (DB,) |"_cresc." (A,/B,/^C/B,/) (A,/B,/^C/A,/) | %23
 (D/C/B,/)A,/!f! G, z |!p! (G,,/A,,/B,,/C,/) (B,,/C,/D,/E,/) | (D,/E,/F,/G,/) (F,/E,/F,/D,/) | %26
"_cresc." (G,/A,/B,/C/) (B,/C/B,/A,/) | (D/C/B,/A,/)!f! uG,!p!vG,,/G,,/ | %28
 B,,/B,,/D,/D,/ E,/E,/G,/G,/ | !2!C/C/!1!E/E/ !4!G z |"^pizz." [D,C] z z2 | [G,,G,] z z2 |] %32

